icon_installer/data/icons/scalable/actions/show-flap-symbolic.svg

<?xml version="1.0" encoding="UTF-8"?>
<svg height="16px" viewBox="0 0 16 16" width="16px" xmlns="http://www.w3.org/2000/svg">
    <g fill="#222222">
        <path d="m 6 11.972656 v -8 h -3 v 8 z m 0 0" fill-opacity="0.34902"/>
        <path d="m 8 2 h 1 v 12 h -1 z m -5 -0.003906 c -1.089844 0 -2 0.910156 -2 2 v 7.976562 c 0 1.089844 0.910156 2 2 2 h 4 v -11.976562 z m 7 0 v 11.976562 h 1 v -11.976562 z m 1.96875 0 v 2 h 1.03125 v 7.976562 h -1.03125 v 2 h 1.03125 c 0.96875 0 2 -0.925781 2 -2 v -7.976562 c 0 -1.089844 -0.910156 -2 -2 -2 z m -8.96875 2 h 3 v 7.976562 h -3 z m 0 0"/>
    </g>
</svg>

<svg xmlns="http://www.w3.org/2000/svg" width="16" height="16"><g fill="#222"><path fill-opacity=".349" d="M6 11.973v-8H3v8zm0 0"/><path d="M8 2h1v12H8zm-5-.004c-1.09 0-2 .91-2 2v7.977c0 1.09.91 2 2 2h4V1.996zm7 0v11.977h1V1.996zm1.969 0v2H13v7.977h-1.031v2H13c.969 0 2-.926 2-2V3.996c0-1.09-.91-2-2-2zM3 3.996h3v7.977H3zm0 0"/></g></svg>
